humanity-icon-theme/Humanity/mimes/22/application-vnd.ms-powerpoint.svg

<?xml version="1.0" encoding="UTF-8" standalone="no"?>
<!-- Created with Inkscape (http://www.inkscape.org/) -->
<svg
   xmlns:svg="http://www.w3.org/2000/svg"
   xmlns="http://www.w3.org/2000/svg"
   xmlns:xlink="http://www.w3.org/1999/xlink"
   version="1.0"
   width="22"
   height="22"
   id="svg3417">
  <defs
     id="defs3419">
    <linearGradient
       id="linearGradient2490-113-580">
      <stop
         id="stop5567"
         style="stop-color:#71171c;stop-opacity:1"
         offset="0" />
      <stop
         id="stop5569"
         style="stop-color:#ed8137;stop-opacity:1"
         offset="1" />
    </linearGradient>
    <linearGradient
       x1="-51.786404"
       y1="53.623615"
       x2="-51.786404"
       y2="2.9062471"
       id="linearGradient2582"
       xlink:href="#linearGradient2490-113-580"
       gradientUnits="userSpaceOnUse"
       gradientTransform="matrix(0.3922137,0,0,0.4473607,28.199292,-1.7387182)" />
    <linearGradient
       id="linearGradient5344-867">
      <stop
         id="stop5559"
         style="stop-color:#f9c590;stop-opacity:1"
         offset="0" />
      <stop
         id="stop5561"
         style="stop-color:#f19860;stop-opacity:1"
         offset="0.39698008" />
      <stop
         id="stop5563"
         style="stop-color:#ce5d36;stop-opacity:1"
         offset="1" />
    </linearGradient>
    <radialGradient
       cx="14.239056"
       cy="11.49049"
       r="18.000002"
       fx="14.239056"
       fy="11.49049"
       id="radialGradient2580"
       xlink:href="#linearGradient5344-867"
       gradientUnits="userSpaceOnUse"
       gradientTransform="matrix(0,1.5890979,-2.5735756,0,35.378535,-19.997893)" />
    <linearGradient
       id="linearGradient3211">
      <stop
         id="stop3213"
         style="stop-color:#ffffff;stop-opacity:1"
         offset="0" />
      <stop
         id="stop3215"
         style="stop-color:#ffffff;stop-opacity:0"
         offset="1" />
    </linearGradient>
    <linearGradient
       x1="24"
       y1="1.9999999"
       x2="24"
       y2="46.01725"
       id="linearGradient2577"
       xlink:href="#linearGradient3211"
       gradientUnits="userSpaceOnUse"
       gradientTransform="matrix(0.4545444,0,0,0.4418595,9.093361e-2,0.3953678)" />
    <linearGradient
       id="linearGradient8265-821-176-38-919-66-249">
      <stop
         id="stop2687"
         style="stop-color:#ffffff;stop-opacity:1"
         offset="0" />
      <stop
         id="stop2689"
         style="stop-color:#ffffff;stop-opacity:0"
         offset="1" />
    </linearGradient>
    <linearGradient
       x1="16.626165"
       y1="15.298182"
       x2="20.054544"
       y2="24.627615"
       id="linearGradient2573"
       xlink:href="#linearGradient8265-821-176-38-919-66-249"
       gradientUnits="userSpaceOnUse"
       gradientTransform="matrix(0.3482993,0,0,0.6967199,2.640816,-3.1585471)" />
    <linearGradient
       id="linearGradient8589">
      <stop
         id="stop8591"
         style="stop-color:#fefefe;stop-opacity:1"
         offset="0" />
      <stop
         id="stop8593"
         style="stop-color:#cbcbcb;stop-opacity:1"
         offset="1" />
    </linearGradient>
    <linearGradient
       x1="32.892288"
       y1="8.0590115"
       x2="36.358372"
       y2="5.4565363"
       id="linearGradient2570"
       xlink:href="#linearGradient8589"
       gradientUnits="userSpaceOnUse"
       gradientTransform="matrix(0.4778466,0,0,0.5524833,-0.6277461,-7.61283e-2)" />
    <linearGradient
       id="linearGradient4000-159-371">
      <stop
         id="stop5573"
         style="stop-color:#000000;stop-opacity:1"
         offset="0" />
      <stop
         id="stop5575"
         style="stop-color:#000000;stop-opacity:0"
         offset="1" />
    </linearGradient>
    <linearGradient
       x1="75.854454"
       y1="28"
       x2="91"
       y2="12"
       id="linearGradient3375"
       xlink:href="#linearGradient4000-159-371"
       gradientUnits="userSpaceOnUse"
       gradientTransform="matrix(0.5586662,0,0,0.4447519,-30.221804,2.6590219)"
       spreadMethod="reflect" />
    <linearGradient
       id="linearGradient5293-366-550">
      <stop
         id="stop5579"
         style="stop-color:#ffffff;stop-opacity:1"
         offset="0" />
      <stop
         id="stop5581"
         style="stop-color:#ffffff;stop-opacity:0"
         offset="1" />
    </linearGradient>
    <linearGradient
       x1="75.854454"
       y1="28"
       x2="91"
       y2="12"
       id="linearGradient3372"
       xlink:href="#linearGradient5293-366-550"
       gradientUnits="userSpaceOnUse"
       gradientTransform="matrix(0.5586662,0,0,0.4447519,-30.161094,1.6052594)"
       spreadMethod="reflect" />
    <linearGradient
       x1="53.39983"
       y1="70.079262"
       x2="106.99174"
       y2="-18.244389"
       id="linearGradient3369"
       xlink:href="#linearGradient2490-113-373"
       gradientUnits="userSpaceOnUse"
       gradientTransform="matrix(0.1952247,0,0,0.1554176,0.7819863,10.642219)"
       spreadMethod="reflect" />
    <linearGradient
       id="linearGradient2490-113-373">
      <stop
         id="stop5625"
         style="stop-color:#71171c;stop-opacity:1"
         offset="0" />
      <stop
         id="stop5627"
         style="stop-color:#ec7422;stop-opacity:1"
         offset="1" />
    </linearGradient>
    <linearGradient
       x1="24.239185"
       y1="42.236279"
       x2="24.239185"
       y2="1.5977496"
       id="linearGradient3359"
       xlink:href="#linearGradient2490-113-373"
       gradientUnits="userSpaceOnUse"
       gradientTransform="matrix(0.4950383,0,0,0.5048857,1.643142,-1.4966343)" />
  </defs>
  <g
     id="layer1">
    <path
       d="M 2.4999608,0.499961 C 6.3955407,0.499961 10.104416,0.499961 13.999999,0.499961 C 14.683367,0.7372579 18.541324,3.628131 19.499999,5.5 C 19.499999,11.229157 19.500038,15.770842 19.500038,21.5 L 2.4999608,21.5 C 2.4999608,14.16664 2.4999608,7.8333189 2.4999608,0.499961 L 2.4999608,0.499961 z"
       id="path4160"
       style="fill:url(#radialGradient2580);fill-opacity:1;fill-rule:nonzero;stroke:url(#linearGradient2582);stroke-width:0.9999218;stroke-linecap:butt;stroke-linejoin:round;marker:none;marker-start:none;marker-mid:none;marker-end:none;stroke-miterlimit:4;stroke-dasharray:none;stroke-dashoffset:0;stroke-opacity:1;visibility:visible;display:inline;overflow:visible;enable-background:accumulate" />
    <path
       d="M 18.5,5.4681839 C 18.5,10.416074 18.5,15.552108 18.5,20.5 C 13.5,20.5 8.5000003,20.5 3.4999991,20.5 C 3.4999991,14.166663 3.4999991,7.8333324 3.4999991,1.4999999 C 6.9372605,1.4999999 10.456498,1.4999999 13.89376,1.4999999"
       id="path2435"
       style="opacity:0.4;fill:none;stroke:url(#linearGradient2577);stroke-width:0.99999988;stroke-linecap:butt;stroke-linejoin:miter;stroke-miterlimit:4;stroke-dasharray:none;stroke-dashoffset:0;stroke-opacity:1;display:inline" />
    <path
       d="M 13.075473,1 C 14.231776,1.3287671 13.414532,5.6143789 13.414532,5.6143789 C 13.414532,5.6143789 17.92992,5.1866427 19.022242,6.809375 C 20.511395,9.0216317 18.954022,6.1742029 18.848795,5.9876778 C 18.092867,4.6476323 14.982455,1.4405918 13.803386,1.0464703 C 13.715154,1.0169778 13.51951,1 13.075473,1 z"
       id="path3370"
       style="opacity:0.2;fill:#000000;fill-opacity:1;fill-rule:evenodd;stroke:none;display:inline" />
    <path
       d="M 3.761904,0.99999974 C 3.341062,0.99999974 3,1.6822432 3,2.5240731 L 3,13.671593 C 3.000965,13.765372 3.021524,13.854055 3.056685,13.916116 C 3.091847,13.978178 3.138396,14.007941 3.185033,13.998178 L 18.858503,9.0340487 C 18.939128,9.0086152 18.998873,8.8707152 19,8.7074612 L 19,5.7073195 C 19,5.7073195 13.901785,0.99999974 13.901785,0.99999974 L 3.761904,0.99999974 z"
       id="path3879"
       style="opacity:0.2;fill:url(#linearGradient2573);fill-opacity:1;fill-rule:evenodd;stroke:none;stroke-width:1.00213289;stroke-linecap:round;stroke-linejoin:round;stroke-miterlimit:4;stroke-dasharray:none;stroke-dashoffset:0;stroke-opacity:1" />
    <path
       d="M 12.999999,1 C 14.526165,1 13.999999,5 13.999999,5 C 13.999999,5 18.992073,4.54674 18.992073,7 C 18.992073,6.4022581 19.047823,5.5215662 18.928003,5.3440674 C 18.088896,4.1010616 15.184238,1.4821803 14.129934,1.0464703 C 14.043956,1.0109384 13.444036,1 12.999999,1 z"
       id="path4474"
       style="fill:url(#linearGradient2570);fill-opacity:1;fill-rule:evenodd;stroke:none;display:inline" />
    <path
       d="M 8.6063483,7.0000001 C 6.7373803,9.4763841 4.8692563,11.955912 3.0002883,14.432297 C 3.0002883,16.953787 3.0002883,19.47851 3.0002883,22 C 7.4396923,22 11.879065,22 16.318468,22 C 17.546719,20.372563 17.736038,20.124483 19.000287,18.449348 C 19.000287,16.162711 19.000287,13.884858 19.000287,11.588767 C 15.331857,9.9685421 10.988554,8.0521412 8.6063483,7.0000001 z"
       id="path3743"
       style="opacity:0.1;fill:url(#linearGradient3375);fill-opacity:1;fill-rule:nonzero;stroke:none;stroke-width:0.91176528;stroke-linecap:butt;stroke-linejoin:miter;marker:none;marker-start:none;marker-mid:none;marker-end:none;stroke-miterlimit:4;stroke-dasharray:none;stroke-dashoffset:0;stroke-opacity:1;visibility:visible;display:inline;overflow:visible;enable-background:accumulate" />
    <path
       d="M 8.6063483,6.0000011 C 6.7373803,8.4763858 4.8692563,10.955913 3.0002883,13.432298 C 3.0002883,15.953787 3.0002883,18.478511 3.0002883,21.000001 C 7.4396923,21.000001 11.879065,21.000001 16.318468,21.000001 C 17.546719,19.372564 17.736038,19.124484 19.000287,17.449349 C 19.000287,15.162711 19.000287,12.884859 19.000287,10.588767 C 15.331857,8.968543 10.988554,7.0521422 8.6063483,6.0000011 z"
       id="path3697"
       style="opacity:0.4;fill:url(#linearGradient3372);fill-opacity:1;fill-rule:nonzero;stroke:none;stroke-width:0.91176528;stroke-linecap:butt;stroke-linejoin:miter;marker:none;marker-start:none;marker-mid:none;marker-end:none;stroke-miterlimit:4;stroke-dasharray:none;stroke-dashoffset:0;stroke-opacity:1;visibility:visible;display:inline;overflow:visible;enable-background:accumulate" />
    <path
       d="M 12.38035,13.550183 C 11.340166,14.845814 11.75332,16.47304 13.302569,17.182383 C 14.851817,17.891728 16.953386,17.415899 17.99357,16.120267 C 19.033754,14.824636 18.6206,13.19741 17.071351,12.488066 C 15.522103,11.778723 13.420534,12.254551 12.38035,13.550183 z M 15.18696,14.835225 L 16.966663,12.618464 C 18.185979,13.176743 18.681537,14.302465 18.206351,15.431923 L 15.18696,14.835225 z"
       id="path5975"
       style="opacity:0.3;fill:url(#linearGradient3369);fill-opacity:1;fill-rule:nonzero;stroke:none;stroke-width:0.91176528;stroke-linecap:butt;stroke-linejoin:miter;marker:none;marker-start:none;marker-mid:none;marker-end:none;stroke-miterlimit:4;stroke-dasharray:none;stroke-dashoffset:0;stroke-opacity:1;visibility:visible;display:inline;overflow:visible;enable-background:accumulate" />
    <path
       d="M 10.286493,11.177589 C 11.003389,11.18277 11.834589,11.210226 12.357377,10.622551 C 12.757535,10.094903 12.761888,9.3333071 12.543588,8.7283514 C 12.260796,8.0374194 11.448499,7.8934844 10.79277,7.9128334 C 10.624004,7.9128334 10.455249,7.9128334 10.286493,7.9128334 C 10.286493,9.0010851 10.286493,10.089337 10.286493,11.177589 z M 14.999608,9.4323731 C 15.014589,10.534914 14.600714,11.704786 13.667932,12.331941 C 12.70412,13.021553 11.492508,13.116582 10.351726,13.088301 C 10.209647,13.104119 10.322595,13.380021 10.286493,13.503914 C 10.286493,14.669276 10.286493,15.834638 10.286493,17 C 9.524325,17 8.762168,17 8,17 C 8,13.334041 8,9.6680811 8,6.0021223 C 9.18553,6.0112633 10.371933,5.9817503 11.556796,6.0211633 C 12.692136,6.0928503 13.93483,6.4965614 14.550257,7.5445864 C 14.881792,8.1099314 14.99969,8.7808874 14.999608,9.4323731 L 14.999608,9.4323731 z"
       id="path3445"
       style="font-size:31.58494568px;font-style:normal;font-variant:normal;font-weight:bold;font-stretch:normal;opacity:0.4;fill:#ffffff;fill-opacity:1;stroke:none;stroke-width:1px;stroke-linecap:butt;stroke-linejoin:miter;stroke-opacity:1;font-family:Droid Sans;-inkscape-font-specification:Droid Sans Bold" />
    <path
       d="M 10.286493,10.177589 C 11.003389,10.18277 11.834589,10.210226 12.357377,9.6225511 C 12.757535,9.0949031 12.761888,8.3333074 12.543588,7.7283514 C 12.260796,7.0374194 11.448499,6.8934844 10.79277,6.9128334 C 10.624004,6.9128334 10.455249,6.9128334 10.286493,6.9128334 C 10.286493,8.0010854 10.286493,9.0893371 10.286493,10.177589 z M 14.999608,8.4323734 C 15.014589,9.5349141 14.600714,10.704786 13.667932,11.331941 C 12.70412,12.021553 11.492508,12.116582 10.351726,12.088301 C 10.209647,12.104119 10.322595,12.380021 10.286493,12.503914 C 10.286493,13.669276 10.286493,14.834638 10.286493,16 C 9.524325,16 8.762168,16 8,16 C 8,12.334041 8,8.6680814 8,5.0021223 C 9.18553,5.0112633 10.371933,4.9817503 11.556796,5.0211633 C 12.692136,5.0928503 13.93483,5.4965614 14.550257,6.5445864 C 14.881792,7.1099314 14.99969,7.7808874 14.999608,8.4323734 L 14.999608,8.4323734 z"
       id="path2595"
       style="font-size:31.58494568px;font-style:normal;font-variant:normal;font-weight:bold;font-stretch:normal;fill:url(#linearGradient3359);fill-opacity:1;stroke:none;stroke-width:1px;stroke-linecap:butt;stroke-linejoin:miter;stroke-opacity:1;font-family:Droid Sans;-inkscape-font-specification:Droid Sans Bold" />
  </g>
</svg>

<?xml version="1.0" encoding="UTF-8" standalone="no"?>
<!-- Created with Inkscape (http://www.inkscape.org/) -->
<svg id="svg3417" xmlns="http://www.w3.org/2000/svg" height="22" width="22" version="1.0" xmlns:xlink="http://www.w3.org/1999/xlink">
 <defs id="defs3419">
  <linearGradient id="linearGradient2582" y2="2.9062" gradientUnits="userSpaceOnUse" x2="-51.786" gradientTransform="matrix(.39221 0 0 .44736 28.199 -1.7387)" y1="53.624" x1="-51.786">
   <stop id="stop5567" style="stop-color:#71171c" offset="0"/>
   <stop id="stop5569" style="stop-color:#ed8137" offset="1"/>
  </linearGradient>
  <radialGradient id="radialGradient2580" gradientUnits="userSpaceOnUse" cy="11.49" cx="14.239" gradientTransform="matrix(0 1.5891 -2.5736 0 35.379 -19.998)" r="18">
   <stop id="stop5559" style="stop-color:#f9c590" offset="0"/>
   <stop id="stop5561" style="stop-color:#f19860" offset=".39698"/>
   <stop id="stop5563" style="stop-color:#ce5d36" offset="1"/>
  </radialGradient>
  <linearGradient id="linearGradient2577" y2="46.017" gradientUnits="userSpaceOnUse" x2="24" gradientTransform="matrix(.45454 0 0 .44186 .090934 .39537)" y1="2" x1="24">
   <stop id="stop3213" style="stop-color:#fff" offset="0"/>
   <stop id="stop3215" style="stop-color:#fff;stop-opacity:0" offset="1"/>
  </linearGradient>
  <linearGradient id="linearGradient2573" y2="24.628" gradientUnits="userSpaceOnUse" x2="20.055" gradientTransform="matrix(.34830 0 0 .69672 2.6408 -3.1585)" y1="15.298" x1="16.626">
   <stop id="stop2687" style="stop-color:#fff" offset="0"/>
   <stop id="stop2689" style="stop-color:#fff;stop-opacity:0" offset="1"/>
  </linearGradient>
  <linearGradient id="linearGradient2570" y2="5.4565" gradientUnits="userSpaceOnUse" x2="36.358" gradientTransform="matrix(.47785 0 0 .55248 -.62775 -.076128)" y1="8.059" x1="32.892">
   <stop id="stop8591" style="stop-color:#fefefe" offset="0"/>
   <stop id="stop8593" style="stop-color:#cbcbcb" offset="1"/>
  </linearGradient>
  <linearGradient id="linearGradient3375" y2="12" spreadMethod="reflect" gradientUnits="userSpaceOnUse" x2="91" gradientTransform="matrix(.55867 0 0 .44475 -30.222 2.659)" y1="28" x1="75.854">
   <stop id="stop5573" offset="0"/>
   <stop id="stop5575" style="stop-opacity:0" offset="1"/>
  </linearGradient>
  <linearGradient id="linearGradient3372" y2="12" spreadMethod="reflect" gradientUnits="userSpaceOnUse" x2="91" gradientTransform="matrix(.55867 0 0 .44475 -30.161 1.6053)" y1="28" x1="75.854">
   <stop id="stop5579" style="stop-color:#fff" offset="0"/>
   <stop id="stop5581" style="stop-color:#fff;stop-opacity:0" offset="1"/>
  </linearGradient>
  <linearGradient id="linearGradient3369" y2="-18.244" xlink:href="#linearGradient2490-113-373" spreadMethod="reflect" gradientUnits="userSpaceOnUse" x2="106.99" gradientTransform="matrix(.19522 0 0 .15542 .78199 10.642)" y1="70.079" x1="53.4"/>
  <linearGradient id="linearGradient2490-113-373">
   <stop id="stop5625" style="stop-color:#71171c" offset="0"/>
   <stop id="stop5627" style="stop-color:#ec7422" offset="1"/>
  </linearGradient>
  <linearGradient id="linearGradient3359" y2="1.5977" xlink:href="#linearGradient2490-113-373" gradientUnits="userSpaceOnUse" x2="24.239" gradientTransform="matrix(.49504 0 0 .50489 1.6431 -1.4966)" y1="42.236" x1="24.239"/>
 </defs>
 <g id="layer1">
  <path id="path4160" style="stroke-linejoin:round;stroke-width:.99992;stroke:url(#linearGradient2582);fill:url(#radialGradient2580)" d="m2.5 0.49996h11.5c0.683 0.2373 4.541 3.1281 5.5 5v16h-17v-21-0.00004z"/>
  <path id="path2435" style="opacity:.4;stroke:url(#linearGradient2577);fill:none" d="m18.5 5.4682v15.032h-15v-19h10.394"/>
  <path id="path3370" style="opacity:.2;fill-rule:evenodd" d="m13.075 1c1.157 0.3288 0.34 4.6144 0.34 4.6144s4.515-0.4278 5.607 1.195c1.489 2.2122-0.068-0.6352-0.173-0.8217-0.756-1.3401-3.867-4.5471-5.046-4.9412-0.088-0.0295-0.283-0.0465-0.728-0.0465z"/>
  <path id="path3879" style="opacity:.2;fill:url(#linearGradient2573);fill-rule:evenodd" d="m3.7619 1c-0.4208 0-0.7619 0.6822-0.7619 1.5241v11.148c0.001 0.093 0.0215 0.182 0.0567 0.244 0.0351 0.062 0.0817 0.092 0.1283 0.082l15.674-4.964c0.08-0.0254 0.14-0.1633 0.141-0.3265v-3.0002l-5.098-4.7073h-10.14z"/>
  <path id="path4474" style="fill:url(#linearGradient2570);fill-rule:evenodd" d="m13 1c1.526 0 1 4 1 4s4.992-0.4533 4.992 2c0-0.5977 0.056-1.4784-0.064-1.6559-0.839-1.243-3.744-3.8619-4.798-4.2976-0.086-0.0356-0.686-0.0465-1.13-0.0465z"/>
  <path id="path3743" style="opacity:.1;fill:url(#linearGradient3375)" d="m8.6063 7c-1.8689 2.4764-3.737 4.956-5.606 7.432v7.568h13.318c1.229-1.627 1.418-1.876 2.682-3.551v-6.86c-3.668-1.6205-8.011-3.5369-10.394-4.589z"/>
  <path id="path3697" style="opacity:.4;fill:url(#linearGradient3372)" d="m8.6063 6c-1.8689 2.4764-3.737 4.956-5.606 7.432v7.568h13.318c1.229-1.627 1.418-1.876 2.682-3.551v-6.86c-3.668-1.6205-8.011-3.5369-10.394-4.589z"/>
  <path id="path5975" style="opacity:.3;fill:url(#linearGradient3369)" d="m12.38 13.55c-1.04 1.296-0.627 2.923 0.923 3.632 1.549 0.71 3.65 0.234 4.691-1.062 1.04-1.295 0.627-2.923-0.923-3.632-1.549-0.709-3.65-0.233-4.691 1.062zm2.807 1.285l1.78-2.217c1.219 0.559 1.715 1.684 1.239 2.814l-3.019-0.597z"/>
  <path id="path3445" style="opacity:.4;fill:#fff" d="m10.286 11.178c0.717 0.005 1.549 0.032 2.071-0.555 0.401-0.528 0.405-1.2897 0.187-1.8946-0.283-0.691-1.096-0.8349-1.751-0.8156h-0.507v3.2652zm4.714-1.7456c0.015 1.1026-0.399 2.2726-1.332 2.8996-0.964 0.69-2.175 0.785-3.316 0.756-0.142 0.016-0.029 0.292-0.066 0.416v3.496h-2.286v-10.998c1.1855 0.0093 2.372-0.0202 3.557 0.0192 1.135 0.0717 2.378 0.4754 2.993 1.5234 0.332 0.5653 0.45 1.2363 0.45 1.8878z"/>
  <path id="path2595" style="fill:url(#linearGradient3359)" d="m10.286 10.178c0.717 0.005 1.549 0.032 2.071-0.5554 0.401-0.5277 0.405-1.2893 0.187-1.8942-0.283-0.691-1.096-0.8349-1.751-0.8156h-0.507v3.2652zm4.714-1.7456c0.015 1.1025-0.399 2.2726-1.332 2.8996-0.964 0.69-2.175 0.785-3.316 0.756-0.142 0.016-0.029 0.292-0.066 0.416v3.496h-2.286v-10.998c1.1855 0.0093 2.372-0.0202 3.557 0.0192 1.135 0.0717 2.378 0.4754 2.993 1.5234 0.332 0.5653 0.45 1.2363 0.45 1.8878z"/>
 </g>
</svg>
